X:7549
T:THUNDERHEAD SEVEN
O:england
M:7/8
L:1/8
C:TRAD ?
S:UNKWOWN
K:G
~B3 fB Bf| eBB dB BA|~B3 fg gf|edB AD FA|
~B3 fB Bf|eBB def|gfe fd db|ADF AB Bc:|
dGG AG GE|DEG F2 F2|EFF EF F2|GFE G4|dGG AG GE|
DEG F2 GA|1 BdB ce eg|fgaf g2 fg|2 Bde|fg ge|edB AG Gc:|B7


